X:1
T:How's Your Father?
C:Marcus Turner
O:New Zealand
M:4/4 
L:1/8
Q:1/4=220
R:Reel
K:A
V:1
|:"A"AE (3EEE "D"DE (3FED|"E"EAGB "A"AB (3cBA|"E"cdBA GABG|"F#m"AGAc "E"BG E2|
"A"AE (3EEE "D"DE (3FED|"E"EAGB "A"AB (3cBA|"D"dfed "A"caec|[1 "E"BAGB "A"A2 cB:|[2 "E"BAGB "A"A2 (3efg|
|:"A"aeca ecae|"E"geBg "D"fdAf|"A"ecAe "E"dBGB|"F#m"AGAc "E"BG (3EEE|
"A"aeca ecae|"E"geBg "D"fdAf|"A"ecAe "E"dBGB|[1 "A"(3ABA "E"GB "A"A2 (3efg:|[2 "A"(3ABA "E"GB "A"A4||



